X:162
T: ES REIT EIN HERR ZUM SCHLOESSLI AUF EINEM SCHOENEN ROESSLI
N: Z0161
O: Europa, Mitteleuropa, Deutschland, Mitteleuropa, Schweiz
R: Kinder -, Wiegen - Lied
M: 4/4
L: 1/8
K: F
F2 | cdcBABAG | F2A2C2
F2 | cdcBABAG | F2A2C2
C2 | F2F2G2G2 | AcBAG2
c2 | A2F2G2C2 | FAGEF2

@@@ Tune index: 9920
